CommonLib.Web/CommonLib.Web/wwwroot/icons/duotone/file-spreadsheet.svg

<svg xmlns="http://www.w3.org/2000/svg" viewBox="0 0 384 512"><!--! Font Awesome Pro 6.2.0 by @fontawesome - https://fontawesome.com License - https://fontawesome.com/license (Commercial License) Copyright 2022 Fonticons, Inc. --><defs><style>.fa-secondary{opacity:.4}</style></defs><path class="fa-primary" d="M256 0v128h128L256 0zM312 224h-240c-8.875 0-16 7.125-16 16v192c0 8.875 7.125 16 16 16h240c8.875 0 16-7.125 16-16v-192C328 231.1 320.9 224 312 224zM136 416h-48v-48h48V416zM136 336h-48V288h48V336zM216 416h-48v-48h48V416zM216 336h-48V288h48V336zM296 416h-48v-48h48V416zM296 336h-48V288h48V336z"/><path class="fa-secondary" d="M256 128V0H48C21.49 0 0 21.49 0 48v416C0 490.5 21.49 512 48 512h288c26.51 0 48-21.49 48-48V128H256zM328 432c0 8.875-7.125 16-16 16h-240c-8.875 0-16-7.125-16-16v-192c0-8.875 7.125-16 16-16h240c8.875 0 16 7.125 16 16V432z"/></svg>

<svg xmlns="http://www.w3.org/2000/svg" viewBox="0 0 384 512"><defs><style>.fa-secondary{opacity:.4}</style></defs><path d="M272 128a16 16 0 0 1-16-16V0H24A23.94 23.94 0 0 0 0 23.88V488a23.94 23.94 0 0 0 23.88 24H360a23.94 23.94 0 0 0 24-23.88V128zm56 304a16 16 0 0 1-16 16H72a16 16 0 0 1-16-16V240a16 16 0 0 1 16-16h240a16 16 0 0 1 16 16z" class="fa-secondary"/><path d="M377 105L279.1 7a24 24 0 0 0-17-7H256v112a16 16 0 0 0 16 16h112v-6.1a23.9 23.9 0 0 0-7-16.9zm-65 119H72a16 16 0 0 0-16 16v192a16 16 0 0 0 16 16h240a16 16 0 0 0 16-16V240a16 16 0 0 0-16-16zM136 416H88v-48h48zm0-80H88v-48h48zm80 80h-48v-48h48zm0-80h-48v-48h48zm80 80h-48v-48h48zm0-80h-48v-48h48z" class="fa-primary"/></svg>
